icons/html5/html5-plain.svg

<svg xmlns="http://www.w3.org/2000/svg" viewBox="0 0 128 128"><path fill="#E44D26" d="M9.032 2l10.005 112.093 44.896 12.401 45.02-12.387 10.015-112.107h-109.936zm89.126 26.539l-.627 7.172-.276 3.289h-52.665000000000006l1.257 14h50.156000000000006l-.336 3.471-3.233 36.119-.238 2.27-28.196 7.749v.002l-.034.018-28.177-7.423-1.913-21.206h13.815000000000001l.979 10.919 15.287 4.081h.043v-.546l15.355-3.875 1.604-17.579h-47.698l-3.383-38.117-.329-3.883h68.939l-.33 3.539z"/></svg>

<svg version="1.1" xmlns="http://www.w3.org/2000/svg" xmlns:xlink="http://www.w3.org/1999/xlink" viewBox="0 0 128 128">
<path fill="#E44D26" d="M9.032,2l10.005,112.093l44.896,12.401l45.02-12.387L118.968,2H9.032z M98.158,28.539
	l-0.627,7.172L97.255,39h-0.044H64.06h-0.048H44.59l1.257,14h18.165h0.048h28.234h3.709l-0.336,3.471l-3.233,36.119l-0.238,2.27
	L64,102.609v0.002l-0.034,0.018l-28.177-7.423L33.876,74h6.367h7.448l0.979,10.919L63.957,89H64v-0.546l15.355-3.875L80.959,67
	H64.06h-0.048H33.261l-3.383-38.117L29.549,25h34.463h0.048h34.428L98.158,28.539z"/>
</svg>
